X:1
T:Title
%%score { 1 | 2 }
L:1/8
M:3/4
K:Ab
V:1 treble nm="Grand Piano"
V:2 bass 
V:1
 z2 z2[Q:1/4=100] [CE]>[CE] | [CE]3 [CE] [CE][CE] | [DF]2 [DF]2 [Fd]>[Fd] | [Ec]4 [CA]2 | %4
 [GB]4 [CE]>[CE] | [CE]3 [CE] [DF][E_G] | [DF]2 [DF]2 [FA]>[FB] | [Ec]4 [DB]2 |[M:2/4] [CA]4 | %9
[M:1/4] [Ec]>[Ec] |[M:3/4] [Fd]2 [DF]2 [FA]>[FB] | [Ec]2 E2 BA | G4 [=DF]2 | E4 [CA]>[DB] | %14
 [Ec]2 [CA]2 [EG]>[EG] | [DF]2 [DA]2 [Fd]>[Fd] | [Ec]4 [DB]2 |[M:2/4] [CA]4 |] %18
V:2
 z2 z2 [A,,A,]>[A,,A,] | [A,,A,]3 [A,,A,] [A,,A,][A,,A,] | [D,A,]2 [D,A,]2 [D,A,]>[D,A,] | %3
 [A,,A,]4 A,,2 | [E,E]4 [A,,A,]>[A,,A,] | [A,,A,]3 [A,,A,] [A,,A,][A,,A,] | %6
 [D,A,]2 [D,A,]2 [D,A,]>[D,A,] | [E,A,]4 [E,G,]2 |[M:2/4] [A,,A,]4 |[M:1/4] [A,,A,]>[A,,A,] | %10
[M:3/4] [D,A,]2 [D,A,]2 [D,A,]>[D,A,] | [A,,A,]2[K:treble] [A,C]2 [G,B,E][A,CF] | [B,E]4 [B,,A,]2 | %13
 [E,G,]4 [A,,A,]>[A,,A,] | [A,,A,]2 [A,,E,]2 [C,A,]>[C,A,] | [D,A,]2 [D,F,]2 [D,A,]>[D,A,] | %16
 [E,A,]4 [E,G,]2 |[M:2/4] [A,,A,]4 |] %18

